X: 461
T: Missa In duplicibus minoribus (I) Et ex Patre Credo
C: Giovanni Perluigi da Palestrina
L: 1/4
M: 4/2
N: Derived from Credo_31_b.krn
Q: "Credo"
V: 1 clef=treble
V: 2 clef=treble
V: 3 clef=treble-8
V: 4 clef=treble-8
V: 5 clef=bass
K: C
[V:1] E4D4 | 
[V:2] z4B,4 | 
[V:3] z8 | 
[V:4] z8 | 
[V:5] E,4G,4 | 
[V:1] F4E4 | 
[V:2] A,4C4 | 
[V:3] z8 | 
[V:4] z8 | 
[V:5] F,2D,2A,4 | 
[V:1] G4A4 | 
[V:2] B,4D4 | 
[V:3] z4A4 | 
[V:4] z8 | 
[V:5] G,2F,E,F,4 | 
[V:1] z2E2G4 | 
[V:2] E4z2B,2 | 
[V:3] c4B2G2 | 
[V:4] z4E4 | 
[V:5] C,4z4 | 
[V:1] F2D2A4 | 
[V:2] D4C2A,2 | 
[V:3] B2A2>B2c2- | 
[V:4] D4F4 | 
[V:5] z8 | 
[V:1] G8 | 
[V:2] E4D4 | 
[V:3] c2BAB4 | 
[V:4] E4G4 | 
[V:5] z8 | 
[V:1] E4G2A2- | 
[V:2] z2C2D2E2- | 
[V:3] c4z2A2 | 
[V:4] A2A2B2c2- | 
[V:5] z8 | 
[V:1] A2G2F2E2- | 
[V:2] E2D2A2A,2 | 
[V:3] c2d4c2 | 
[V:4] c2B2A4 | 
[V:5] z8 | 
[V:1] E2D2E4 | 
[V:2] B,CDA,C2B,2 | 
[V:3] B2A4GA | 
[V:4] G2F2E4 | 
[V:5] z4z2E,2 | 
[V:1] z8 | 
[V:2] E4z4 | 
[V:3] BA/ B/c4B2 | 
[V:4] z2A2c2d2- | 
[V:5] G,2A,4G,2 | 
[V:1] z4z2A2 | 
[V:2] z8 | 
[V:3] A2G2>F2E2 | 
[V:4] d2c2B2A2- | 
[V:5] F,2E,2>D,2C,2 | 
[V:1] B2d4c2 | 
[V:2] z8 | 
[V:3] D4E2A2- | 
[V:4] A2^G2A4 | 
[V:5] B,,2B,,2A,,B,,C,D, | 
[V:1] B4A2GF/ E/ | 
[V:2] B,4D2E2- | 
[V:3] A2^G2A2B2 | 
[V:4] z2E2F2G2 | 
[V:5] E,4z4 | 
[V:1] F4E4 | 
[V:2] E2D2C4 | 
[V:3] c2B4A2- | 
[V:4] A2D2E4- | 
[V:5] z8 | 
[V:1] E8- | 
[V:2] B,4A,4 | 
[V:3] A^G^GA/ B/cBA2- | 
[V:4] E4E4 | 
[V:5] E,4A,,4 | 
[V:1] E8 | 
[V:2] B,8- | 
[V:3] A2^G2^G4 | 
[V:4] E8- | 
[V:5] E,8- | 
[V:1] E8- | 
[V:2] B,4-B,4- | 
[V:3] ^G8- | 
[V:4] E4-E4- | 
[V:5] E,4-E,4- | 
[V:1] E8
[V:2] B,8
[V:3] G8
[V:4] E8
[V:5] E,8

